src/assets/images/beat-boxer/WRONG_HIT.svg

<svg width="171" height="171" viewBox="0 0 171 171" fill="none" xmlns="http://www.w3.org/2000/svg">
<g clip-path="url(#clip0_9279_207066)">
<path d="M166.7 46.36L123.82 3.48C121.59 1.25 118.57 0 115.42 0H54.77C51.62 0 48.6 1.25 46.37 3.48L3.48 46.36C1.25 48.59 0 51.61 0 54.76V115.4C0 118.55 1.25 121.58 3.48 123.8L46.36 166.68C48.59 168.91 51.61 170.16 54.76 170.16H115.41C118.56 170.16 121.58 168.91 123.81 166.68L166.69 123.8C168.92 121.57 170.17 118.55 170.17 115.4V54.77C170.17 51.62 168.92 48.59 166.69 46.37L166.7 46.36Z" fill="#FFC440"/>
<path d="M96.1098 64.0601L108.15 52.0101C111.08 49.0801 111.08 44.3301 108.15 41.4001C105.22 38.4701 100.47 38.4701 97.5398 41.4001L85.4998 53.4401L73.4598 41.4001C70.5298 38.4701 65.7798 38.4701 62.8498 41.4001C59.9198 44.3301 59.9198 49.0801 62.8498 52.0101L74.8898 64.0601L62.8498 76.1101C59.9198 79.0401 59.9198 83.7901 62.8498 86.7201C64.3098 88.1801 66.2298 88.9201 68.1498 88.9201C70.0698 88.9201 71.9898 88.1901 73.4498 86.7201L85.4898 74.6801L97.5298 86.7201C98.9898 88.1801 100.91 88.9201 102.83 88.9201C104.75 88.9201 106.67 88.1901 108.13 86.7201C111.06 83.7901 111.06 79.0401 108.13 76.1101L96.0898 64.0601H96.1098Z" fill="#000066"/>
<path d="M49.47 119.18H49.28L40.77 106.64H35.25V130.59H41.75V118.01H41.89L50.54 130.59H55.97V106.64H49.47V119.18Z" fill="#000066"/>
<path d="M76.5107 107.72C74.7507 106.78 72.7807 106.31 70.6207 106.31C68.4607 106.31 66.4707 106.78 64.7107 107.72C62.9507 108.66 61.5607 110.04 60.5207 111.87C59.4907 113.7 58.9707 115.95 58.9707 118.61C58.9707 121.27 59.4907 123.5 60.5207 125.33C61.5507 127.16 62.9507 128.55 64.7107 129.49C66.4707 130.44 68.4407 130.91 70.6207 130.91C72.8007 130.91 74.7507 130.44 76.5107 129.5C78.2707 128.56 79.6707 127.18 80.7107 125.35C81.7507 123.52 82.2607 121.27 82.2607 118.61C82.2607 115.95 81.7407 113.7 80.7107 111.87C79.6707 110.04 78.2707 108.66 76.5107 107.72ZM75.0107 122.25C74.6307 123.24 74.0707 123.98 73.3407 124.5C72.6007 125.01 71.7007 125.27 70.6207 125.27C69.5407 125.27 68.6407 125.02 67.9007 124.5C67.1607 123.99 66.6107 123.24 66.2307 122.25C65.8507 121.26 65.6607 120.05 65.6607 118.62C65.6607 117.19 65.8507 115.98 66.2307 114.99C66.6107 114 67.1707 113.26 67.9007 112.74C68.6407 112.23 69.5407 111.97 70.6207 111.97C71.7007 111.97 72.6007 112.23 73.3407 112.74C74.0807 113.25 74.6307 114 75.0107 114.99C75.3907 115.98 75.5807 117.19 75.5807 118.62C75.5807 120.05 75.3907 121.26 75.0107 122.25Z" fill="#000066"/>
<path d="M100.26 107.69C98.93 106.99 97.37 106.64 95.59 106.64H85.25V130.59H91.75V123.48H95.35C97.17 123.48 98.77 123.14 100.14 122.46C101.51 121.78 102.57 120.82 103.33 119.56C104.09 118.3 104.47 116.82 104.47 115.1C104.47 113.38 104.1 111.91 103.36 110.64C102.62 109.37 101.58 108.38 100.25 107.68L100.26 107.69ZM97.26 116.87C96.97 117.37 96.55 117.75 96.01 118.02C95.47 118.29 94.82 118.42 94.05 118.42H91.76V111.82H94.05C94.81 111.82 95.47 111.95 96.01 112.21C96.55 112.47 96.97 112.85 97.26 113.33C97.55 113.82 97.7 114.4 97.7 115.09C97.7 115.78 97.55 116.36 97.26 116.86V116.87Z" fill="#000066"/>
<path d="M106.869 130.59H124.079V125.35H113.369V121.23H123.239V115.99H113.369V111.88H124.129V106.64H106.869V130.59Z" fill="#000066"/>
<path d="M131.661 124.46C130.761 124.46 129.981 124.78 129.341 125.41C128.701 126.04 128.381 126.8 128.391 127.69C128.391 128.6 128.701 129.38 129.341 130.01C129.981 130.64 130.761 130.96 131.661 130.96C132.241 130.96 132.771 130.81 133.261 130.52C133.751 130.23 134.151 129.83 134.461 129.34C134.771 128.85 134.931 128.29 134.931 127.69C134.931 126.8 134.591 126.04 133.931 125.41C133.271 124.78 132.511 124.46 131.661 124.46Z" fill="#000066"/>
<path d="M134.321 123.11L134.931 106.64H128.381L128.991 123.11H134.321Z" fill="#000066"/>
</g>
<defs>
<clipPath id="clip0_9279_207066">
<rect width="170.18" height="170.18" fill="white"/>
</clipPath>
</defs>
</svg>

<?xml version="1.0" encoding="UTF-8"?><svg id="Layer_2" xmlns="http://www.w3.org/2000/svg" viewBox="0 0 170.18 170.18"><defs><style>.cls-1{fill:none;}.cls-2{fill:#fff;}.cls-3{fill:#22205f;}</style></defs><g id="Layer_1-2"><g><path class="cls-3" d="M166.7,46.36L123.82,3.48c-2.23-2.23-5.25-3.48-8.4-3.48H54.77c-3.15,0-6.17,1.25-8.4,3.48L3.48,46.36c-2.23,2.23-3.48,5.25-3.48,8.4v60.64c0,3.15,1.25,6.18,3.48,8.4l42.88,42.88c2.23,2.23,5.25,3.48,8.4,3.48h60.65c3.15,0,6.17-1.25,8.4-3.48l42.88-42.88c2.23-2.23,3.48-5.25,3.48-8.4V54.77c0-3.15-1.25-6.18-3.48-8.4Z"/><g><path class="cls-2" d="M96.11,64.06l12.04-12.05c2.93-2.93,2.93-7.68,0-10.61-2.93-2.93-7.68-2.93-10.61,0l-12.04,12.04-12.04-12.04c-2.93-2.93-7.68-2.93-10.61,0-2.93,2.93-2.93,7.68,0,10.61l12.04,12.05-12.04,12.05c-2.93,2.93-2.93,7.68,0,10.61,1.46,1.46,3.38,2.2,5.3,2.2s3.84-.73,5.3-2.2l12.04-12.04,12.04,12.04c1.46,1.46,3.38,2.2,5.3,2.2s3.84-.73,5.3-2.2c2.93-2.93,2.93-7.68,0-10.61l-12.04-12.05Z"/><g><path class="cls-1" d="M73.33,112.74c-.74-.51-1.64-.77-2.72-.77s-1.98,.26-2.72,.77c-.74,.51-1.29,1.26-1.67,2.25-.38,.99-.57,2.2-.57,3.63s.19,2.64,.57,3.63,.94,1.73,1.67,2.25c.74,.51,1.64,.77,2.72,.77s1.98-.25,2.72-.77c.74-.51,1.29-1.26,1.67-2.25s.57-2.2,.57-3.63-.19-2.64-.57-3.63c-.38-.99-.94-1.73-1.67-2.25Z"/><path class="cls-1" d="M96.01,112.22c-.54-.26-1.19-.39-1.96-.39h-2.29v6.6h2.29c.76,0,1.42-.13,1.96-.4,.54-.27,.96-.65,1.25-1.15,.29-.5,.44-1.09,.44-1.77s-.15-1.27-.44-1.76c-.29-.49-.71-.86-1.25-1.12Z"/><polygon class="cls-2" points="49.47 119.18 49.28 119.18 40.77 106.64 35.25 106.64 35.25 130.59 41.75 130.59 41.75 118.01 41.89 118.01 50.54 130.59 55.97 130.59 55.97 106.64 49.47 106.64 49.47 119.18"/><path class="cls-2" d="M76.51,107.72c-1.76-.94-3.73-1.41-5.89-1.41s-4.15,.47-5.91,1.41c-1.76,.94-3.15,2.32-4.19,4.15-1.03,1.83-1.55,4.08-1.55,6.74s.52,4.89,1.55,6.72c1.03,1.83,2.43,3.22,4.19,4.16,1.76,.95,3.73,1.42,5.91,1.42s4.13-.47,5.89-1.41c1.76-.94,3.16-2.32,4.2-4.15,1.04-1.83,1.55-4.08,1.55-6.74s-.52-4.91-1.55-6.74c-1.04-1.83-2.44-3.21-4.2-4.15Zm-1.5,14.53c-.38,.99-.94,1.73-1.67,2.25-.74,.51-1.64,.77-2.72,.77s-1.98-.25-2.72-.77c-.74-.51-1.29-1.26-1.67-2.25s-.57-2.2-.57-3.63,.19-2.64,.57-3.63c.38-.99,.94-1.73,1.67-2.25,.74-.51,1.64-.77,2.72-.77s1.98,.26,2.72,.77c.74,.51,1.29,1.26,1.67,2.25,.38,.99,.57,2.2,.57,3.63s-.19,2.64-.57,3.63Z"/><path class="cls-2" d="M100.26,107.69c-1.33-.7-2.89-1.05-4.67-1.05h-10.34v23.95h6.5v-7.11h3.6c1.82,0,3.42-.34,4.79-1.02,1.37-.68,2.43-1.64,3.19-2.9,.76-1.26,1.14-2.74,1.14-4.46s-.37-3.19-1.11-4.46c-.74-1.27-1.78-2.26-3.11-2.96Zm-3,9.18c-.29,.5-.71,.88-1.25,1.15-.54,.27-1.19,.4-1.96,.4h-2.29v-6.6h2.29c.76,0,1.42,.13,1.96,.39,.54,.26,.96,.64,1.25,1.12,.29,.49,.44,1.07,.44,1.76s-.15,1.27-.44,1.77Z"/><polygon class="cls-2" points="106.87 130.59 124.08 130.59 124.08 125.35 113.37 125.35 113.37 121.23 123.24 121.23 123.24 115.99 113.37 115.99 113.37 111.88 124.13 111.88 124.13 106.64 106.87 106.64 106.87 130.59"/><path class="cls-2" d="M131.66,124.46c-.9,0-1.68,.32-2.32,.95-.64,.63-.96,1.39-.95,2.28,0,.91,.31,1.69,.95,2.32s1.42,.95,2.32,.95c.58,0,1.11-.15,1.6-.44,.49-.29,.89-.69,1.2-1.18,.31-.49,.47-1.05,.47-1.65,0-.89-.34-1.65-1-2.28-.66-.63-1.42-.95-2.27-.95Z"/><polygon class="cls-2" points="134.32 123.11 134.93 106.64 128.38 106.64 128.99 123.11 134.32 123.11"/></g></g></g></g></svg>
